static/img/kroki/291d9b4c97255b0aa553e7b794f14f22.svg

<?xml version="1.0" encoding="us-ascii" standalone="no"?><svg xmlns="http://www.w3.org/2000/svg" xmlns:xlink="http://www.w3.org/1999/xlink" contentStyleType="text/css" height="1006px" preserveAspectRatio="none" style="width:495px;height:1006px;" version="1.1" viewBox="0 0 495 1006" width="495px" zoomAndPan="magnify"><defs/><g><!--class aws_cloudwatch_metric_filter--><g id="elem_aws_cloudwatch_metric_filter"><rect codeLine="22" fill="#3D176E" height="100.3828" id="aws_cloudwatch_metric_filter" rx="2.5" ry="2.5" style="stroke:#000D19;stroke-width:0.5;" width="481" x="7" y="633.85"/><ellipse cx="113.75" cy="653.7445" fill="#ADD1B2" rx="11" ry="11" style="stroke:#181818;stroke-width:1.0;"/><path d="M116.7188,659.3852 Q116.1406,659.682 115.5,659.8227 Q114.8594,659.9789 114.1563,659.9789 Q111.6563,659.9789 110.3281,658.3383 Q109.0156,656.682 109.0156,653.557 Q109.0156,650.432 110.3281,648.7758 Q111.6563,647.1195 114.1563,647.1195 Q114.8594,647.1195 115.5,647.2758 Q116.1563,647.432 116.7188,647.7289 L116.7188,650.4477 Q116.0938,649.8695 115.5,649.6039 Q114.9063,649.3227 114.2813,649.3227 Q112.9375,649.3227 112.25,650.4008 Q111.5625,651.4633 111.5625,653.557 Q111.5625,655.6508 112.25,656.7289 Q112.9375,657.7914 114.2813,657.7914 Q114.9063,657.7914 115.5,657.5258 Q116.0938,657.2445 116.7188,656.6664 L116.7188,659.3852 Z " fill="#000000"/><text fill="#D9B8FF" font-family="Helvetica" font-size="17" lengthAdjust="spacing" textLength="249" x="139.25" y="659.6298">aws_cloudwatch_metric_filter</text><line style="stroke:#000D19;stroke-width:0.5;" x1="8" x2="487" y1="673.6391" y2="673.6391"/><text fill="#D9B8FF" font-family="sans-serif" font-size="14" font-weight="bold" lengthAdjust="spacing" textLength="102" x="18" y="695.6342">filter_pattern</text><text fill="#D9B8FF" font-family="sans-serif" font-size="14" lengthAdjust="spacing" textLength="48" x="120" y="695.6342">: string</text><text fill="#D9B8FF" font-family="sans-serif" font-size="14" font-weight="bold" lengthAdjust="spacing" textLength="170" x="18" y="721.9311">filter_transformations</text><text fill="#D9B8FF" font-family="sans-serif" font-size="14" lengthAdjust="spacing" textLength="289" x="188" y="721.9311">: aws_cloudwatch_metric_transformation[]</text></g><!--class aws_cloudwatch_metric_transformation--><g id="elem_aws_cloudwatch_metric_transformation"><rect codeLine="26" fill="#3D176E" height="205.5703" id="aws_cloudwatch_metric_transformation" rx="2.5" ry="2.5" style="stroke:#000D19;stroke-width:0.5;" width="377" x="59" y="794.23"/><ellipse cx="74" cy="814.1245" fill="#ADD1B2" rx="11" ry="11" style="stroke:#181818;stroke-width:1.0;"/><path d="M76.9688,819.7652 Q76.3906,820.062 75.75,820.2027 Q75.1094,820.3589 74.4063,820.3589 Q71.9063,820.3589 70.5781,818.7183 Q69.2656,817.062 69.2656,813.937 Q69.2656,810.812 70.5781,809.1558 Q71.9063,807.4995 74.4063,807.4995 Q75.1094,807.4995 75.75,807.6558 Q76.4063,807.812 76.9688,808.1089 L76.9688,810.8277 Q76.3438,810.2495 75.75,809.9839 Q75.1563,809.7027 74.5313,809.7027 Q73.1875,809.7027 72.5,810.7808 Q71.8125,811.8433 71.8125,813.937 Q71.8125,816.0308 72.5,817.1089 Q73.1875,818.1714 74.5313,818.1714 Q75.1563,818.1714 75.75,817.9058 Q76.3438,817.6245 76.9688,817.0464 L76.9688,819.7652 Z " fill="#000000"/><text fill="#D9B8FF" font-family="Helvetica" font-size="17" lengthAdjust="spacing" textLength="335" x="93" y="820.0098">aws_cloudwatch_metric_transformation</text><line style="stroke:#000D19;stroke-width:0.5;" x1="60" x2="435" y1="834.0191" y2="834.0191"/><text fill="#D9B8FF" font-family="sans-serif" font-size="14" font-weight="bold" lengthAdjust="spacing" textLength="104" x="70" y="856.0142">default_value</text><text fill="#D9B8FF" font-family="sans-serif" font-size="14" lengthAdjust="spacing" textLength="57" x="174" y="856.0142">: double</text><text fill="#D9B8FF" font-family="sans-serif" font-size="14" font-weight="bold" lengthAdjust="spacing" textLength="90" x="70" y="882.3111">dimensions</text><text fill="#D9B8FF" font-family="sans-serif" font-size="14" lengthAdjust="spacing" textLength="171" x="160" y="882.3111">: dictionary[string, string]</text><text fill="#D9B8FF" font-family="sans-serif" font-size="14" font-weight="bold" lengthAdjust="spacing" textLength="100" x="70" y="908.6079">metric_name</text><text fill="#D9B8FF" font-family="sans-serif" font-size="14" lengthAdjust="spacing" textLength="48" x="170" y="908.6079">: string</text><text fill="#D9B8FF" font-family="sans-serif" font-size="14" font-weight="bold" lengthAdjust="spacing" textLength="147" x="70" y="934.9048">metric_namespace</text><text fill="#D9B8FF" font-family="sans-serif" font-size="14" lengthAdjust="spacing" textLength="48" x="217" y="934.9048">: string</text><text fill="#D9B8FF" font-family="sans-serif" font-size="14" font-weight="bold" lengthAdjust="spacing" textLength="99" x="70" y="961.2017">metric_value</text><text fill="#D9B8FF" font-family="sans-serif" font-size="14" lengthAdjust="spacing" textLength="48" x="169" y="961.2017">: string</text><text fill="#D9B8FF" font-family="sans-serif" font-size="14" font-weight="bold" lengthAdjust="spacing" textLength="30" x="70" y="987.4986">unit</text><text fill="#D9B8FF" font-family="sans-serif" font-size="14" lengthAdjust="spacing" textLength="48" x="100" y="987.4986">: string</text></g><!--class aws_resource--><g id="elem_aws_resource"><rect codeLine="34" fill="#3D176E" height="74.0859" id="aws_resource" rx="2.5" ry="2.5" style="stroke:#000D19;stroke-width:0.5;" width="155" x="170" y="438.76"/><ellipse cx="185" cy="458.6545" fill="#ADD1B2" rx="11" ry="11" style="stroke:#181818;stroke-width:1.0;"/><path d="M187.9688,464.2952 Q187.3906,464.592 186.75,464.7327 Q186.1094,464.8889 185.4063,464.8889 Q182.9063,464.8889 181.5781,463.2483 Q180.2656,461.592 180.2656,458.467 Q180.2656,455.342 181.5781,453.6858 Q182.9063,452.0295 185.4063,452.0295 Q186.1094,452.0295 186.75,452.1858 Q187.4063,452.342 187.9688,452.6389 L187.9688,455.3577 Q187.3438,454.7795 186.75,454.5139 Q186.1563,454.2327 185.5313,454.2327 Q184.1875,454.2327 183.5,455.3108 Q182.8125,456.3733 182.8125,458.467 Q182.8125,460.5608 183.5,461.6389 Q184.1875,462.7014 185.5313,462.7014 Q186.1563,462.7014 186.75,462.4358 Q187.3438,462.1545 187.9688,461.5764 L187.9688,464.2952 Z " fill="#000000"/><text fill="#D9B8FF" font-family="Helvetica" font-size="17" lengthAdjust="spacing" textLength="113" x="204" y="464.5398">aws_resource</text><line style="stroke:#000D19;stroke-width:0.5;" x1="171" x2="324" y1="478.5491" y2="478.5491"/><text fill="#D9B8FF" font-family="sans-serif" font-size="14" font-weight="bold" lengthAdjust="spacing" textLength="26" x="181" y="500.5442">arn</text><text fill="#D9B8FF" font-family="sans-serif" font-size="14" lengthAdjust="spacing" textLength="48" x="207" y="500.5442">: string</text></g><!--class resource--><g id="elem_resource"><rect codeLine="37" fill="#3D176E" height="310.7578" id="resource" rx="2.5" ry="2.5" style="stroke:#000D19;stroke-width:0.5;" width="227" x="134" y="7"/><ellipse cx="202.75" cy="26.8945" fill="#ADD1B2" rx="11" ry="11" style="stroke:#181818;stroke-width:1.0;"/><path d="M205.7188,32.5352 Q205.1406,32.832 204.5,32.9727 Q203.8594,33.1289 203.1563,33.1289 Q200.6563,33.1289 199.3281,31.4883 Q198.0156,29.832 198.0156,26.707 Q198.0156,23.582 199.3281,21.9258 Q200.6563,20.2695 203.1563,20.2695 Q203.8594,20.2695 204.5,20.4258 Q205.1563,20.582 205.7188,20.8789 L205.7188,23.5977 Q205.0938,23.0195 204.5,22.7539 Q203.9063,22.4727 203.2813,22.4727 Q201.9375,22.4727 201.25,23.5508 Q200.5625,24.6133 200.5625,26.707 Q200.5625,28.8008 201.25,29.8789 Q201.9375,30.9414 203.2813,30.9414 Q203.9063,30.9414 204.5,30.6758 Q205.0938,30.3945 205.7188,29.8164 L205.7188,32.5352 Z " fill="#000000"/><text fill="#D9B8FF" font-family="Helvetica" font-size="17" lengthAdjust="spacing" textLength="71" x="228.25" y="32.7798">resource</text><line style="stroke:#000D19;stroke-width:0.5;" x1="135" x2="360" y1="46.7891" y2="46.7891"/><text fill="#D9B8FF" font-family="sans-serif" font-size="14" font-weight="bold" lengthAdjust="spacing" textLength="29" x="145" y="68.7842">age</text><text fill="#D9B8FF" font-family="sans-serif" font-size="14" lengthAdjust="spacing" textLength="66" x="174" y="68.7842">: duration</text><text fill="#D9B8FF" font-family="sans-serif" font-size="14" font-weight="bold" lengthAdjust="spacing" textLength="43" x="145" y="95.0811">atime</text><text fill="#D9B8FF" font-family="sans-serif" font-size="14" lengthAdjust="spacing" textLength="70" x="188" y="95.0811">: datetime</text><text fill="#D9B8FF" font-family="sans-serif" font-size="14" font-weight="bold" lengthAdjust="spacing" textLength="43" x="145" y="121.3779">ctime</text><text fill="#D9B8FF" font-family="sans-serif" font-size="14" lengthAdjust="spacing" textLength="70" x="188" y="121.3779">: datetime</text><text fill="#D9B8FF" font-family="sans-serif" font-size="14" font-weight="bold" lengthAdjust="spacing" textLength="14" x="145" y="147.6748">id</text><text fill="#D9B8FF" font-family="sans-serif" font-size="14" lengthAdjust="spacing" textLength="48" x="159" y="147.6748">: string</text><text fill="#D9B8FF" font-family="sans-serif" font-size="14" font-weight="bold" lengthAdjust="spacing" textLength="33" x="145" y="173.9717">kind</text><text fill="#D9B8FF" font-family="sans-serif" font-size="14" lengthAdjust="spacing" textLength="48" x="178" y="173.9717">: string</text><text fill="#D9B8FF" font-family="sans-serif" font-size="14" font-weight="bold" lengthAdjust="spacing" textLength="90" x="145" y="200.2686">last_access</text><text fill="#D9B8FF" font-family="sans-serif" font-size="14" lengthAdjust="spacing" textLength="66" x="235" y="200.2686">: duration</text><text fill="#D9B8FF" font-family="sans-serif" font-size="14" font-weight="bold" lengthAdjust="spacing" textLength="90" x="145" y="226.5654">last_update</text><text fill="#D9B8FF" font-family="sans-serif" font-size="14" lengthAdjust="spacing" textLength="66" x="235" y="226.5654">: duration</text><text fill="#D9B8FF" font-family="sans-serif" font-size="14" font-weight="bold" lengthAdjust="spacing" textLength="48" x="145" y="252.8623">mtime</text><text fill="#D9B8FF" font-family="sans-serif" font-size="14" lengthAdjust="spacing" textLength="70" x="193" y="252.8623">: datetime</text><text fill="#D9B8FF" font-family="sans-serif" font-size="14" font-weight="bold" lengthAdjust="spacing" textLength="43" x="145" y="279.1592">name</text><text fill="#D9B8FF" font-family="sans-serif" font-size="14" lengthAdjust="spacing" textLength="48" x="188" y="279.1592">: string</text><text fill="#D9B8FF" font-family="sans-serif" font-size="14" font-weight="bold" lengthAdjust="spacing" textLength="34" x="145" y="305.4561">tags</text><text fill="#D9B8FF" font-family="sans-serif" font-size="14" lengthAdjust="spacing" textLength="171" x="179" y="305.4561">: dictionary[string, string]</text></g><!--link aws_cloudwatch_metric_filter to aws_cloudwatch_metric_transformation--><g id="link_aws_cloudwatch_metric_filter_aws_cloudwatch_metric_transformation"><path codeLine="49" d="M247.5,734.5 C247.5,750.73 247.5,769.44 247.5,788.26 " fill="none" id="aws_cloudwatch_metric_filter-to-aws_cloudwatch_metric_transformation" style="stroke:#FFAF37;stroke-width:2.0;"/><polygon fill="#FFAF37" points="247.5,793.1,251.5,784.1,247.5,788.1,243.5,784.1,247.5,793.1" style="stroke:#FFAF37;stroke-width:2.0;"/></g><!--reverse link aws_resource to aws_cloudwatch_metric_filter--><g id="link_aws_resource_aws_cloudwatch_metric_filter"><path codeLine="50" d="M247.5,533.99 C247.5,565.22 247.5,603.51 247.5,633.47 " fill="none" id="aws_resource-backto-aws_cloudwatch_metric_filter" style="stroke:#FFAF37;stroke-width:2.0;"/><polygon fill="none" points="240.5,534.2,247.5,514.2,254.5,534.2,240.5,534.2" style="stroke:#FFAF37;stroke-width:2.0;"/></g><!--reverse link resource to aws_resource--><g id="link_resource_aws_resource"><path codeLine="51" d="M247.5,338.98 C247.5,376.79 247.5,413 247.5,438.52 " fill="none" id="resource-backto-aws_resource" style="stroke:#FFAF37;stroke-width:2.0;"/><polygon fill="none" points="240.5,339.18,247.5,319.18,254.5,339.18,240.5,339.18" style="stroke:#FFAF37;stroke-width:2.0;"/></g><!--SRC=[ZPHFQnin4CNl-oa4kPaks0cjur8AgQ6qbr2Qta9OnjB85jwL5caKuxRvxfLsRLVx9tPENkRzFE_DxDWR9P1XLTEULLYjqBhCRPMkmKB5xgmrkwKfZMLNKeAycVV5hqRJHU0UAcJVi7n6KXpwnA-DubkDph7hHFe2VBksnclHjYSBsWK9DINKiWJdxeYiMdd298nOh6wbx9FzfbStOZR_W0FCM87sW4odKp5Rz96BLcVdFX4FwZUoMRgqUqCuY3cmQAYpAIEHX1mCUjHVpVW3X51wpTudjPzj9glHTkeF6n1c5sa9fKjj7A55G_iQbuEfS74hv7mK_luQpEFc6EnSmKlZnGw8RueAmm7mGgeoD61_iicaVIngeF2X9vEFeRSD-VvBpJr9OoiWPRIBo7ZNBlZubBsS3T75cp029VYIYcSeFKOZOVognAYe2hKx-Wl5utV0xX_RjEyEgPy2UcYlm-lgZ9FKmy-3ZueduvFWjQAaa8vaqHblEJRHeREy8zP5rkrCtZOJnmgfDgG0mlWSQdoafaGdKpY3RY5uKG6SXx-6daEZ-3hswYdLYCzWPmJhImj_oSxUM9v_VjFxppeR_VGtp_EpnvkDiCVIFm00]--></g></svg>

<svg xmlns="http://www.w3.org/2000/svg" width="495" height="1006" preserveAspectRatio="none" style="width:495px;height:1006px"><rect width="481" height="100.383" x="7" y="633.85" fill="#3D176E" rx="2.5" ry="2.5" style="stroke:#000d19;stroke-width:.5"/><circle cx="113.75" cy="653.745" r="11" fill="#ADD1B2" style="stroke:#181818;stroke-width:1"/><path d="M116.719 659.385q-.578.297-1.219.438-.64.156-1.344.156-2.5 0-3.828-1.64-1.312-1.657-1.312-4.782t1.312-4.781q1.328-1.656 3.828-1.656.703 0 1.344.156.656.156 1.219.453v2.719q-.625-.578-1.219-.844-.594-.281-1.219-.281-1.344 0-2.031 1.078-.688 1.062-.688 3.156 0 2.094.688 3.172.688 1.062 2.031 1.062.625 0 1.219-.265.594-.281 1.219-.86v2.72Z"/><text x="139.25" y="659.63" fill="#D9B8FF" font-family="Helvetica" font-size="17" textLength="249">aws_cloudwatch_metric_filter</text><path d="M8 673.639h479" style="stroke:#000d19;stroke-width:.5"/><text x="18" y="695.634" fill="#D9B8FF" font-family="sans-serif" font-size="14" font-weight="bold" textLength="102">filter_pattern</text><text x="120" y="695.634" fill="#D9B8FF" font-family="sans-serif" font-size="14" textLength="48">: string</text><text x="18" y="721.931" fill="#D9B8FF" font-family="sans-serif" font-size="14" font-weight="bold" textLength="170">filter_transformations</text><text x="188" y="721.931" fill="#D9B8FF" font-family="sans-serif" font-size="14" textLength="289">: aws_cloudwatch_metric_transformation[]</text><rect width="377" height="205.57" x="59" y="794.23" fill="#3D176E" rx="2.5" ry="2.5" style="stroke:#000d19;stroke-width:.5"/><circle cx="74" cy="814.125" r="11" fill="#ADD1B2" style="stroke:#181818;stroke-width:1"/><path d="M76.969 819.765q-.578.297-1.219.438-.64.156-1.344.156-2.5 0-3.828-1.64-1.312-1.657-1.312-4.782t1.312-4.781q1.328-1.656 3.828-1.656.703 0 1.344.156.656.156 1.219.453v2.719q-.625-.578-1.219-.844-.594-.281-1.219-.281-1.344 0-2.031 1.078-.688 1.062-.688 3.156 0 2.094.688 3.172.688 1.062 2.031 1.062.625 0 1.219-.265.594-.281 1.219-.86v2.72Z"/><text x="93" y="820.01" fill="#D9B8FF" font-family="Helvetica" font-size="17" textLength="335">aws_cloudwatch_metric_transformation</text><path d="M60 834.019h375" style="stroke:#000d19;stroke-width:.5"/><text x="70" y="856.014" fill="#D9B8FF" font-family="sans-serif" font-size="14" font-weight="bold" textLength="104">default_value</text><text x="174" y="856.014" fill="#D9B8FF" font-family="sans-serif" font-size="14" textLength="57">: double</text><text x="70" y="882.311" fill="#D9B8FF" font-family="sans-serif" font-size="14" font-weight="bold" textLength="90">dimensions</text><text x="160" y="882.311" fill="#D9B8FF" font-family="sans-serif" font-size="14" textLength="171">: dictionary[string, string]</text><text x="70" y="908.608" fill="#D9B8FF" font-family="sans-serif" font-size="14" font-weight="bold" textLength="100">metric_name</text><text x="170" y="908.608" fill="#D9B8FF" font-family="sans-serif" font-size="14" textLength="48">: string</text><text x="70" y="934.905" fill="#D9B8FF" font-family="sans-serif" font-size="14" font-weight="bold" textLength="147">metric_namespace</text><text x="217" y="934.905" fill="#D9B8FF" font-family="sans-serif" font-size="14" textLength="48">: string</text><text x="70" y="961.202" fill="#D9B8FF" font-family="sans-serif" font-size="14" font-weight="bold" textLength="99">metric_value</text><text x="169" y="961.202" fill="#D9B8FF" font-family="sans-serif" font-size="14" textLength="48">: string</text><text x="70" y="987.499" fill="#D9B8FF" font-family="sans-serif" font-size="14" font-weight="bold" textLength="30">unit</text><text x="100" y="987.499" fill="#D9B8FF" font-family="sans-serif" font-size="14" textLength="48">: string</text><rect width="155" height="74.086" x="170" y="438.76" fill="#3D176E" rx="2.5" ry="2.5" style="stroke:#000d19;stroke-width:.5"/><circle cx="185" cy="458.654" r="11" fill="#ADD1B2" style="stroke:#181818;stroke-width:1"/><path d="M187.969 464.295q-.578.297-1.219.438-.64.156-1.344.156-2.5 0-3.828-1.64-1.312-1.657-1.312-4.782t1.312-4.781q1.328-1.656 3.828-1.656.703 0 1.344.156.656.156 1.219.453v2.719q-.625-.579-1.219-.844-.594-.281-1.219-.281-1.344 0-2.031 1.078-.688 1.062-.688 3.156 0 2.094.688 3.172.688 1.062 2.031 1.062.625 0 1.219-.265.594-.281 1.219-.86v2.72Z"/><text x="204" y="464.54" fill="#D9B8FF" font-family="Helvetica" font-size="17" textLength="113">aws_resource</text><path d="M171 478.549h153" style="stroke:#000d19;stroke-width:.5"/><text x="181" y="500.544" fill="#D9B8FF" font-family="sans-serif" font-size="14" font-weight="bold" textLength="26">arn</text><text x="207" y="500.544" fill="#D9B8FF" font-family="sans-serif" font-size="14" textLength="48">: string</text><rect width="227" height="310.758" x="134" y="7" fill="#3D176E" rx="2.5" ry="2.5" style="stroke:#000d19;stroke-width:.5"/><circle cx="202.75" cy="26.895" r="11" fill="#ADD1B2" style="stroke:#181818;stroke-width:1"/><path d="M205.719 32.535q-.578.297-1.219.438-.64.156-1.344.156-2.5 0-3.828-1.64-1.312-1.657-1.312-4.782t1.312-4.781q1.328-1.656 3.828-1.656.703 0 1.344.156.656.156 1.219.453v2.719q-.625-.578-1.219-.844-.594-.281-1.219-.281-1.344 0-2.031 1.078-.688 1.062-.688 3.156 0 2.094.688 3.172.688 1.062 2.031 1.062.625 0 1.219-.265.594-.281 1.219-.86v2.72Z"/><text x="228.25" y="32.78" fill="#D9B8FF" font-family="Helvetica" font-size="17" textLength="71">resource</text><path d="M135 46.789h225" style="stroke:#000d19;stroke-width:.5"/><text x="145" y="68.784" fill="#D9B8FF" font-family="sans-serif" font-size="14" font-weight="bold" textLength="29">age</text><text x="174" y="68.784" fill="#D9B8FF" font-family="sans-serif" font-size="14" textLength="66">: duration</text><text x="145" y="95.081" fill="#D9B8FF" font-family="sans-serif" font-size="14" font-weight="bold" textLength="43">atime</text><text x="188" y="95.081" fill="#D9B8FF" font-family="sans-serif" font-size="14" textLength="70">: datetime</text><text x="145" y="121.378" fill="#D9B8FF" font-family="sans-serif" font-size="14" font-weight="bold" textLength="43">ctime</text><text x="188" y="121.378" fill="#D9B8FF" font-family="sans-serif" font-size="14" textLength="70">: datetime</text><text x="145" y="147.675" fill="#D9B8FF" font-family="sans-serif" font-size="14" font-weight="bold" textLength="14">id</text><text x="159" y="147.675" fill="#D9B8FF" font-family="sans-serif" font-size="14" textLength="48">: string</text><text x="145" y="173.972" fill="#D9B8FF" font-family="sans-serif" font-size="14" font-weight="bold" textLength="33">kind</text><text x="178" y="173.972" fill="#D9B8FF" font-family="sans-serif" font-size="14" textLength="48">: string</text><text x="145" y="200.269" fill="#D9B8FF" font-family="sans-serif" font-size="14" font-weight="bold" textLength="90">last_access</text><text x="235" y="200.269" fill="#D9B8FF" font-family="sans-serif" font-size="14" textLength="66">: duration</text><text x="145" y="226.565" fill="#D9B8FF" font-family="sans-serif" font-size="14" font-weight="bold" textLength="90">last_update</text><text x="235" y="226.565" fill="#D9B8FF" font-family="sans-serif" font-size="14" textLength="66">: duration</text><text x="145" y="252.862" fill="#D9B8FF" font-family="sans-serif" font-size="14" font-weight="bold" textLength="48">mtime</text><text x="193" y="252.862" fill="#D9B8FF" font-family="sans-serif" font-size="14" textLength="70">: datetime</text><text x="145" y="279.159" fill="#D9B8FF" font-family="sans-serif" font-size="14" font-weight="bold" textLength="43">name</text><text x="188" y="279.159" fill="#D9B8FF" font-family="sans-serif" font-size="14" textLength="48">: string</text><text x="145" y="305.456" fill="#D9B8FF" font-family="sans-serif" font-size="14" font-weight="bold" textLength="34">tags</text><text x="179" y="305.456" fill="#D9B8FF" font-family="sans-serif" font-size="14" textLength="171">: dictionary[string, string]</text><path fill="none" d="M247.5 734.5v53.76" style="stroke:#ffaf37;stroke-width:2"/><path fill="#FFAF37" d="m247.5 793.1 4-9-4 4-4-4 4 9z" style="stroke:#ffaf37;stroke-width:2"/><path fill="none" d="M247.5 533.99v99.48m-7-99.27 7-20 7 20h-14zm7-195.22v99.54m-7-99.34 7-20 7 20h-14z" style="stroke:#ffaf37;stroke-width:2"/></svg>
